Adwaita++/mimetypes/16/application-x-desktop.svg

<svg height="16" width="16" xmlns="http://www.w3.org/2000/svg">
  <path d="m6.928571.5000079c-.192821 0-.353504.7447243-.447824 1.8090609a5.8928563 5.8928563 0 0 0 -1.424038.5985016c-.822614-.6894372-1.465194-1.1055979-1.601909-.9688767l-1.516113 1.5161111c-.136714.1367324.279453.7792955.968888 1.6019167a5.8928563 5.8928563 0 0 0 -.593261 1.424013c-1.067323.094213-1.814314.2546933-1.814314.447835v2.1428521c0 .1928183.744741.3535198 1.809083.4478225a5.8928563 5.8928563 0 0 0 .596399 1.4271829c-.687867.821141-1.103348 1.462226-.966795 1.59877l1.516113 1.516117c.136429.136404.776694-.278056 1.596679-.964709a5.8928563 5.8928563 0 0 0 1.429268.58909c.09423 1.067307.254681 1.814305.447824 1.814305h2.142857c.19282 0 .353503-.744741.447824-1.809083a5.8928563 5.8928563 0 0 0 1.424037-.598496c.822615.689431 1.465196 1.105609 1.601911.968893l1.516113-1.516117c.136715-.136726-.279453-.779295-.96889-1.601905a5.8928563 5.8928563 0 0 0 .593261-1.4240479c1.067323-.0942 1.814316-.2546583 1.814316-.4478225v-2.1428521c0-.192807-.744741-.3534973-1.809082-.447835a5.8928563 5.8928563 0 0 0 -.596402-1.4271715c.687869-.8211408 1.103348-1.4622189.966797-1.5987582l-1.516113-1.5161167c-.13643-.1364034-.776695.2780614-1.596681.9646926a5.8928563 5.8928563 0 0 0 -1.429267-.5890731c-.09423-1.0673301-.254682-1.8142997-.447824-1.8142997zm1.071429 4.8214128a2.6785711 2.6785711 0 0 1 2.67857 2.678572 2.6785711 2.6785711 0 0 1 -2.67857 2.6785723 2.6785711 2.6785711 0 0 1 -2.678571-2.6785723 2.6785711 2.6785711 0 0 1 2.678571-2.678572z" fill="#474747"/>
</svg>

<svg xmlns="http://www.w3.org/2000/svg" width="16" height="16" version="1.1">
 <path d="m 6.928571,0.5000079 c -0.192821,0 -0.353504,0.7447243 -0.447824,1.8090609 A 5.8928563,5.8928563 0 0 0 5.056709,2.9075704 C 4.234095,2.2181332 3.591515,1.8019725 3.4548,1.9386937 L 1.938687,3.4548048 C 1.801973,3.5915372 2.21814,4.2341003 2.907575,5.0567215 A 5.8928563,5.8928563 0 0 0 2.314314,6.4807345 C 1.246991,6.5749475 0.5,6.7354278 0.5,6.9285695 v 2.1428521 c 0,0.1928183 0.744741,0.3535198 1.809083,0.4478225 a 5.8928563,5.8928563 0 0 0 0.596399,1.4271829 c -0.687867,0.821141 -1.103348,1.462226 -0.966795,1.59877 L 3.4548,14.061314 c 0.136429,0.136404 0.776694,-0.278056 1.596679,-0.964709 a 5.8928563,5.8928563 0 0 0 1.429268,0.58909 C 6.574977,14.753002 6.735428,15.5 6.928571,15.5 h 2.142857 c 0.19282,0 0.353503,-0.744741 0.447824,-1.809083 a 5.8928563,5.8928563 0 0 0 1.424037,-0.598496 c 0.822615,0.689431 1.465196,1.105609 1.601911,0.968893 l 1.516113,-1.516117 c 0.136715,-0.136726 -0.279453,-0.779295 -0.96889,-1.601905 A 5.8928563,5.8928563 0 0 0 13.685684,9.5192441 C 14.753007,9.4250441 15.5,9.2645858 15.5,9.0714216 V 6.9285695 c 0,-0.192807 -0.744741,-0.3534973 -1.809082,-0.447835 A 5.8928563,5.8928563 0 0 0 13.094516,5.053563 C 13.782385,4.2324222 14.197864,3.5913441 14.061313,3.4548048 L 12.5452,1.9386881 C 12.40877,1.8022847 11.768505,2.2167495 10.948519,2.9033807 A 5.8928563,5.8928563 0 0 0 9.519252,2.3143076 C 9.425022,1.2469775 9.26457,0.5000079 9.071428,0.5000079 Z M 8,5.3214207 A 2.6785711,2.6785711 0 0 1 10.67857,7.9999927 2.6785711,2.6785711 0 0 1 8,10.678565 2.6785711,2.6785711 0 0 1 5.321429,7.9999927 2.6785711,2.6785711 0 0 1 8,5.3214207 Z" style="fill:#474747"/>
</svg>
